X:483
T:
R:vals
S:Efter »Florsen» i Burs.
O:Gotland, Burs
M:3/4
L:1/8
K:A
ee|a2 e2 e2|c2 A2 e2|d2 B2 e2|c2 A2 ee|a2 e2 e2|c2 A2 e2|d2 B2 e2|A4::e2|d2 B2 e2|
c2 A2 e2|d2 B2 e2|c2 A2 ee|a2 e2 e2|c2 A2 e2|d2 B2 e2|A4:|

